!!!ONB: MCCC : IJH0410_04 : Extracted Monophonic Melody
!!!COM: Haydn, Joseph
!!!OPR: String Quartet in B-flat major
!!!OMV: 4
!!!SCT: Hob.III:44 ; Op.50 No.1
!!!ODT: 1787///
**kern
*thru
*k[b-e-]
*B-:
*clefF
*M2/4
4ff
8dd
8b-
=1
8f
8b-
8b-
8b-
=2
8cc
8cc
8cc
8cc
=3
16dd
16ee-
16dd
16cc
16b-
16cc
16dd
16ee-
=4
4ff
8dd
8b-
=5
8f
8b-
8b-
8b-
=6
8cc
8cc
16cc
16ee-
16dd
16cc
=7
4b-
4r
=8
2r
=9
8r
8bb-
8bb-
8bb-
=10
16bb-
16ccc
16bb-
16ccc
8aa
8ff
=11
4ddd
4r
=12
2r
=13
8r
8bb-
8bb-
8bb-
=14
16bb-
16ccc
16bb-
16ccc
8aa
8ff
=15
4bb-
4r
=16
8cc
8cc
16cc
16ee-
16dd
16cc
=17
4b-
4r
=18
8ee
8ee
16ee
16gg
16ff
16ee
=19
4ff
4r
=20
8gg
8gg
16gg
16bb-
16aa
16gg
=21
4aa
4r
=22
8bb
8bb
16bb
16ddd
16ccc
16bb
=23
4ccc
4r
=24
4bb-
8ccc
8ddd-
=25
4ff
4ee
=26
8bb-
8bb-
8ccc
8ddd-
=27
4ff
4ee
=28
16bb-
16ccc
16ddd-
16ccc
16bb-
16aa-
16gg
16ff
=29
2ff
=30
16ee
16ff
16ee
16ff
16gg
16aa
16gg
16aa
=31
8bb-
16bb-
16aa
8gg
16gg
16ff
=32
8ee
16gg
16ff
16ee
16dd
16cc
16b-
=33
4a
4r
=34
4dd
8b-
8g
=35
4e
4r
=36
4ff
8dd
8b-
=37
4gg
8ee
8b-
=38
16a
16cc
16b
16cc
16ff
16cc
16b
16cc
=39
16cc
16ff
16ee
16ff
16aa
16ff
16ee
16ff
=40
16ff
16aa
16gg#
16aa
16ccc
16aa
16gg#
16aa
=41
16ccc
16aa
16gg#
16aa
16ccc
16aa
16gg#
16aa
=42
4ccc
8r
16aa
16bb-
=43
8ccc
8aa
8ccc
8aa
=44
4ccc
4r
=45
8r
8ddd
8ddd
8ddd
=46
4ddd
8bb-
8gg
=47
8r
8ccc
8ccc
8ccc
=48
4ccc
8aa
8ff
=49
8r
8fff
8fff
8fff
=50
8fff
8ddd
8bb
8ff
=51
16ee
16cc
16b
16cc
16gg
16cc
16b
16cc
=52
16bb-
16aa
16gg
16ff
16ee
16dd
16cc
16b-
=53
8a
8cc
8dd
8ee
=54
8ff
8gg
8aa
8bb-
=55
8ccc
8aa
8bb-
8ccc
=56
8ddd
8eee
8fff
8ggg
=57
2aaa
=58
2B
=59
8c
8f
8a
8cc
=60
8ff
8aa
8ccc
8fff
=61
2gg[
=62
2gg]
=63
4ff
8dd-
8b-
=64
4gg-
8ee-
8cc
=65
4ff
8dd-
8b-
=66
4ddd-
8bb-
8gg
=67
8ccc
16aa
16ff
8bb-
16gg
16dd
=68
8aa
16ff
16cc
8gg
16ee
16b-
=69
4a
4r
=70
4bb-
8gg
8ee
=71
4ff
4r
=72
4b-
8g
8e
=73
4f
4ff
=74
4ff
4r
=75
4aa-
8ff
8dd
=76
4b
4r
=77
4ddd
8bb
8gg
=78
4ee-
4r
=79
4eee-
8ccc
8gg
=80
4ee-
4r
=81
4ff#
8aa
8ccc
=82
4bb-
4r
=83
4b-
8dd
8gg
=84
4bb-
4r
=85
4bb-
8gg
8cc#
=86
4dd
4r
=87
4ccc
8ddd
8eee-
=88
4gg
4ff#
=89
8ccc
8ccc
8ddd
8eee-
=90
4gg
4ff#
=91
16ccc
16ddd
16eee-
16ddd
16ccc
16bb-
16aa
16gg
=92
2gg
=93
2ff#
=94
2ff
=95
2ff
=96
2ff
=97
2ff[
=98
2ff]
=99
4ee-
4dd
=100
2cc[
=101
8cc]
8cc
8dd
8ee-
=102
4b-
4a
=103
8cc
8cc
8dd
8ee-
=104
4b-
4a
=105
16ee-
16ff
16gg
16ff
16ee-
16dd
16cc
16b-
=106
2b-
=107
32dd
32ee-
32dd
32ee-
32dd
32ee-
32dd
32ee-
32dd
32ee-
32ff
32ee-
16ee-
16ee
=108
4ff
8dd
8b-
=109
8f
8b-
8b-
8b-
=110
8cc
8cc
8cc
8cc
=111
4dd
4bb-
=112
4bb-
4aa
=113
2aa-
=114
8gg
8gg
8gg
8gg
=115
8aa-
8aa-
8aa-
8aa-
=116
2bb-[
=117
4bb-]
4aa-
=118
2aa-[
=119
4aa-]
4gg
=120
2gg[
=121
4gg]
4ff
=122
16ff
16ee-
16dd
16cc
16b
16a-
16g
16f
=123
4e-
4r
=124
2r
=125
2r
=126
2r
=127
2r
=128
4ccc
8aa-
8ff
=129
4ee
4r
=130
4ccc
8aa-
8ff
=131
4dd
4r
=132
4bb-
8gg
8ee-
=133
8b-
8ee-
8ee-
8ee-
=134
8ff
8ff
8ff
8ff
=135
8gg
8gg
8gg
8gg
=136
8aa-
8aa-
8aa-
8aa-
=137
4bb-
8gg
8ee-
=138
4cc
4r
=139
4ccc
8aa
8ff
=140
4dd
4r
=141
4ddd
8bb
8gg
=142
4ee-
4r
=143
4eee-
8ccc
8aa-
=144
8ee-
8ccc
8aa-
8gg
=145
8ff#
8eee-
8ccc
8aa
=146
8ff#
8ee-
8cc
8a
=147
8g
8ddd
8bb-
8gg
=148
8dd
8b-
8g
8f
=149
8e
8ddd-
8bb-
8gg
=150
8ee
8dd-
8b-
8g
=151
8f
8ccc
8aa
8ff
=152
8ee-
8ccc
8aa
8ee-
=153
8dd
8bb-
8ff
8dd
=154
8b-
8bb-
8gg
8ee
=155
4ff
8cc
8a
=156
4ff
8dd
8b-
=157
4ff
8ee-
8cc
=158
4ff
8dd
8b-
=159
4ff
8cc
8a
=160
4ff
8dd
8b-
=161
4.ff
8ff
=162
8ee
8ff
8gg
8ff
=163
4ff
8dd
8b-
=164
8f
8b-
8b-
8b-
=165
8cc
8cc
8cc
8cc
=166
16dd
16ee-
16dd
16cc
16b-
16cc
16dd
16ee-
=167
4ff
8dd
8b-
=168
8f
8b-
8b-
8b-
=169
8cc
8cc
16cc
16ee-
16dd
16cc
=170
4b-
4r
=171
2r
=172
8r
8bb-
8bb-
8bb-
=173
16bb-
16ccc
16bb-
16ccc
8aa
8ff
=174
4ddd
4r
=175
2r
=176
8r
8bb-
8bb-
8bb-
=177
16bb-
16ccc
16bb-
16ccc
8aa
8ff
=178
4bb-
4r
=179
8cc
8cc
16cc
16ee-
16dd
16cc
=180
4b-
4r
=181
8ee
8ee
16ee
16gg
16ff
16ee
=182
4ff
4r
=183
4ee-
8ff
8gg-
=184
4b-
4a
=185
8ee-
8ee-
8ff
8gg-
=186
4b-
4a
=187
16ee-
16ff
16gg-
16ff
16ee-
16dd-
16cc
16b-
=188
2b-
=189
16a
16b-
16a
16b-
16cc
16dd
16cc
16dd
=190
8ee-
16ee-
16dd
8cc
16cc
16b-
=191
8a
16cc
16b-
16a
16g
16f
16e-
=192
4d
4r
=193
4gg
8ee-
8cc
=194
4a
4r
=195
4bb-
8gg
8ee-
=196
4ccc
8aa
8ee-
=197
16dd
16ff
16ee
16ff
16bb-
16ff
16ee
16ff
=198
16ff
16bb-
16aa
16bb-
16ddd
16bb-
16aa
16bb-
=199
16bb-
16ddd
16ccc#
16ddd
16fff
16ddd
16ccc#
16ddd
=200
16fff
16ddd
16ccc#
16ddd
16fff
16ddd
16ccc#
16ddd
=201
4fff
8r
16ddd
16eee-
=202
8fff
16ddd
16eee-
8fff
16ddd
16eee-
=203
4fff
4r
=204
2A-
=205
8G
8B-
8e-
8g
=206
8b-
8ee-
8gg
8bb-
=207
8d-
8e
8g
8b-
=208
8dd-
8ee
8gg
8bb-
=209
8f
8b-
8dd
8ff
=210
8bb-
8ddd
8fff
8bb-
=211
2ccc[
=212
2ccc]
=213
4bb-
8gg
8ee
=214
4ccc
8aa
8ee-
=215
8bb-
16ff
16dd
8gg
16ee-
16cc
=216
8ff
16dd
16b-
8ee-
16cc
16a
=217
4b-
4r
=218
4ee-
8cc
8a
=219
4b-
4r
=220
4ee-
8cc
8a
=221
4b-
4r
=222
2r
=223
2r
=224
8r
8f
8b-
8dd
=225
4ff
8dd
8b-
=226
8f
8b-
8b-
8b-
=227
8cc
8cc
8cc
8cc
=228
16dd
16ee-
16dd
16cc
16b-
16cc
16dd
16ee-
=229
4ff
8dd
8b-
=230
8f
8b-
8b-
8b-
=231
8cc
8cc
16cc
16ee-
16dd
16cc
=232
4b-
4r
=233
4eee-
8ccc
8aa
=234
4fff
8ddd
8bb-
=235
4eee-
8ccc
8aa
=236
4bb-
4r
=237
8cc
8cc
16cc
16ee-
16dd
16cc
=238
8b-
8d
8f
8b-
=239
8cc
8cc
16cc
16ee-
16dd
16cc
=240
4b-
4r
=241
4ee-
8cc
8a
=242
4b-
4r
=243
4aa
4r
=244
4bb-
4r
==
*-
